X: 17738
T: Homesteaders
R: waltz
M: 3/4
K: Gmajor
D|GAB2G2D2|E4 GAB2|G2d2d4|gfe6|
d4c2B2|c2d2A4|GAB2G2e2|d4 BAG2|A2B2E4|
|:GAB3AG2|G2E3DD2|1 E2G2A4:|2 E2G2G4||
|:gfe3fg2|e4dcd2|A2c2B4|GAB2e3B|
[1 B2d2BAG2|A2B2A4:|2 B2A2G2E2-|E4G3||

